X: 40
T: The Scorching Sun
C: Armand Aromin
H: 4/20/05
M: 6/8
L: 1/8
R: Jig
K: Amix
Acd ege | dcA AGE | GBd ege | dcA G3 |
Acd ege | dcA AGE | GBd ege | dcA A3 :|
c2 A cBA | edc age | G3 BGB | dBG ged |
c2 A cBA | edc age | gab age | dcA A3 :|
EAA BAA | gAA fAA | DGG BGG | eGG dGG |
EAA BAA | gAA fAA | gAA fAA | edB A3 :|
